X:6006
T:Gan Ainm
R:Reel
S:
H:
N:Really rough and sketchy
D:Milltown 1999 
Z:Adrian Scahill
M:4/4
L:1/8
K:D
(3dcd fd eAA2|ABBc dBAF|ABde fa (3aaa|abaf feef|\
dgfd eAAd|ABBc dBAF|ABde faaf|1 egfe dABc:|2 egfe dcde||\
faaf dcde|faaf eAAd|ABBc defa|bfaf feeg|\
effa bfaf|dgfd eAAd|ABBc dfaf|egfe d4:||


